24x24/actions/amarok_playcount.svg

<svg xmlns="http://www.w3.org/2000/svg" viewBox="0 0 24 24"><path style="fill:currentColor;fill-opacity:1;stroke:none;color:#5d656b" d="M16 4v16h4V4h-4zm-6 7v9h4v-9h-4zm-6 4v5h4v-5H4z"/></svg>

<svg xmlns="http://www.w3.org/2000/svg" viewBox="0 0 24 24">
  <defs id="defs3051">
    <style type="text/css" id="current-color-scheme">
      .ColorScheme-Text {
        color:#5d656b;
      }
      </style>
  </defs>
 <path style="fill:currentColor;fill-opacity:1;stroke:none" 
     d="M 16 4 L 16 20 L 20 20 L 20 4 L 16 4 z M 10 11 L 10 20 L 14 20 L 14 11 L 10 11 z M 4 15 L 4 20 L 8 20 L 8 15 L 4 15 z "
     class="ColorScheme-Text"
     />
</svg>
